X: 570
T: Guan deng
%%abc-version 2.0
%%abcx-abcm2ps-target-version 5.9.1 (29 Sep 2008)
%%abc-creator hum2abc beta
%%abcx-conversion-date 2013/10/02 07:52:30
%%abc-edited-by Helmut Schaffrath
%%humdrum-veritas 3365588258
%%humdrum-veritas-data 2619192358
%%continueall 1
%%barnumbers 0
L: 1/8
M: 2/4
K: G
d d/ d/ e g [I:setbarnb 1]| 
dd3 | 
g e/ d/ d E | 
GG3 | 
G> A d B | 
A B A G | 
A A/ B/ G D | 
E E G/ G/ G/ E/ | 
DD3 |]  



